icons/info.svg

<svg xmlns="http://www.w3.org/2000/svg" width="24" height="24" viewBox="0 0 24 24">
  <path d="M12,9 C12.6,9 13,9.4 13,10 L13,10 L13,17 L14,17 C14.5522847,17 15,17.4477153 15,18 C15,18.5522847 14.5522847,19 14,19 L14,19 L10,19 C9.44771525,19 9,18.5522847 9,18 C9,17.4477153 9.44771525,17 10,17 L10,17 L11,17 L11,11 L10,11 C9.44771525,11 9,10.5522847 9,10 C9,9.44771525 9.44771525,9 10,9 L10,9 Z M11.5,4 C12.3284271,4 13,4.67157288 13,5.5 C13,6.32842712 12.3284271,7 11.5,7 C10.6715729,7 10,6.32842712 10,5.5 C10,4.67157288 10.6715729,4 11.5,4 Z"/>
</svg>

<svg xmlns="http://www.w3.org/2000/svg" viewBox="0 0 24 24">
  <path d="M12 9c.6 0 1 .4 1 1v7h1a1 1 0 0 1 0 2h-4a1 1 0 0 1 0-2h1v-6h-1a1 1 0 0 1 0-2zm-.5-5a1.5 1.5 0 1 1 0 3 1.5 1.5 0 0 1 0-3z"/>
</svg>
